app/assets/images/payment_icons/payjustnow.svg

<svg width="38" height="24" viewBox="0 0 38 24" fill="none" xmlns="http://www.w3.org/2000/svg" aria-labelledby="pi-payjustnow" role="img"><title id="pi-payjustnow">PayJustNow</title>
<rect width="38" height="24" rx="2" fill="white"/>
<path d="M27.1154 11.853L26.0855 12.5268C24.7325 10.4544 22.6546 9.03408 20.2341 8.52612C17.8129 8.01892 15.34 8.48486 13.2703 9.83917C11.5523 10.9639 10.2824 12.5876 9.61154 14.4926H8.31473C9.0321 12.1569 10.5275 10.1626 12.5972 8.80899C14.9419 7.27461 17.7439 6.74564 20.486 7.32113C23.2288 7.89586 25.5825 9.50528 27.1154 11.853Z" fill="#EA516C"/>
<path d="M20.9155 5.27198L20.6613 6.48223C17.6959 5.86022 14.6653 6.43196 12.1287 8.09165C9.81614 9.60502 8.16627 11.8567 7.42267 14.4925H6.1431C6.91969 11.4245 8.78994 8.79844 11.4525 7.05622C14.2658 5.21571 17.6262 4.58169 20.9155 5.27198Z" fill="#29AAF2"/>
<path d="M10.9892 6.34642C8.08678 8.24546 6.06661 11.1274 5.27128 14.4925H4.01046C4.82977 10.6982 7.06657 7.44187 10.3161 5.31549L10.9892 6.34642Z" fill="#86E3E8"/>
<path d="M5.03779 17.7417H4.5943V18.5396H4.01057V15.8805H5.09464C5.72765 15.8805 6.11049 16.2577 6.11049 16.7997V16.8073C6.11049 17.4233 5.63289 17.7417 5.03779 17.7417ZM5.51918 16.8111C5.51918 16.5496 5.33723 16.4093 5.04537 16.4093H4.5943V17.2224H5.05674C5.34861 17.2224 5.51918 17.048 5.51918 16.8206V16.8111V16.8111Z" fill="#12183D"/>
<path d="M8.25214 18.5377L8.00955 17.9407H6.88757L6.64497 18.5377H6.04987L7.18701 15.8597H7.72526L8.86241 18.5377H8.25214ZM7.44856 16.5647L7.09604 17.427H7.80107L7.44856 16.5647Z" fill="#12183D"/>
<path d="M10.1871 17.4782V18.5377H9.60341V17.4896L8.58377 15.8805H9.26605L9.89906 16.9476L10.5434 15.8805H11.2068L10.1871 17.4782Z" fill="#12183D"/>
<path d="M12.1885 18.5775C11.7905 18.5775 11.5366 18.3804 11.3698 18.1056L11.5859 17.9198C11.7488 18.1662 11.9156 18.2989 12.1923 18.2989C12.4918 18.2989 12.7116 18.0828 12.7116 17.6621V15.8805H13.0149V17.6583C13.0149 18.2686 12.6624 18.5775 12.1885 18.5775Z" fill="#12183D"/>
<path d="M15.8937 17.4022C15.8937 18.1774 15.4503 18.5792 14.7869 18.5792C14.1312 18.5792 13.6839 18.1774 13.6839 17.425V15.8785H13.9833V17.406C13.9833 17.9803 14.2866 18.3025 14.7945 18.3025C15.2835 18.3025 15.5943 18.0068 15.5943 17.425V15.8785H15.8937V17.4022V17.4022Z" fill="#12183D"/>
<path d="M17.554 17.0649C18.1453 17.1938 18.4182 17.4117 18.4182 17.8211C18.4182 18.2797 18.0391 18.5773 17.5123 18.5773C17.0915 18.5773 16.7466 18.437 16.4282 18.1527L16.6139 17.9329C16.8906 18.1831 17.156 18.3082 17.5236 18.3082C17.8799 18.3082 18.115 18.1224 18.115 17.8533C18.115 17.6031 17.9823 17.461 17.4251 17.3454C16.8148 17.2127 16.5343 17.0156 16.5343 16.574C16.5343 16.1476 16.902 15.8443 17.4061 15.8443C17.7928 15.8443 18.0695 15.9543 18.3386 16.1703L18.1642 16.4015C17.9179 16.2006 17.6715 16.1135 17.3986 16.1135C17.0536 16.1135 16.8338 16.303 16.8338 16.5475C16.8338 16.7995 16.9702 16.9398 17.554 17.0649Z" fill="#12183D"/>
<path d="M19.9762 18.5377H19.6729V16.1573H18.7822V15.8805H20.8669V16.1573H19.9762V18.5377Z" fill="#12183D"/>
<path d="M23.2341 18.5377L21.9491 16.8471V18.5377H21.3711V15.8805H21.9093L23.1526 17.518V15.8805H23.7287V18.5377H23.2341V18.5377Z" fill="#12183D"/>
<path d="M25.6561 18.5849C24.8373 18.5849 24.2498 17.9747 24.2498 17.2166V17.209C24.2498 16.4528 24.8449 15.8349 25.6637 15.8349C26.4824 15.8349 27.0699 16.4452 27.0699 17.2014V17.209C27.0699 17.9652 26.4748 18.5849 25.6561 18.5849ZM26.4597 17.209C26.4597 16.7522 26.1261 16.3732 25.6561 16.3732C25.1861 16.3732 24.8601 16.7447 24.8601 17.2014V17.209C24.8601 17.6657 25.1936 18.0448 25.6637 18.0448C26.1337 18.0448 26.4597 17.6733 26.4597 17.2166V17.209Z" fill="#12183D"/>
<path d="M30.3544 18.5584H29.8465L29.2476 16.8185L28.6487 18.5584H28.1408L27.2348 15.8804H27.8603L28.4099 17.6809L29.005 15.8728H29.5053L30.1004 17.6809L30.6501 15.8804H31.2603L30.3544 18.5584Z" fill="#12183D"/>
<path d="M32.9212 17.5164C32.7677 17.5164 32.6306 17.4824 32.5098 17.4145C32.3915 17.3465 32.2983 17.2534 32.2304 17.1351C32.1624 17.0143 32.1285 16.8784 32.1285 16.7274C32.1285 16.5739 32.1624 16.438 32.2304 16.3197C32.2983 16.1989 32.3915 16.1045 32.5098 16.0365C32.6306 15.9686 32.7677 15.9346 32.9212 15.9346C33.0748 15.9346 33.2107 15.9686 33.3289 16.0365C33.4472 16.1045 33.5391 16.1989 33.6045 16.3197C33.6725 16.438 33.7065 16.5739 33.7065 16.7274C33.7065 16.8784 33.6725 17.0143 33.6045 17.1351C33.5391 17.2534 33.4472 17.3465 33.3289 17.4145C33.2107 17.4824 33.0748 17.5164 32.9212 17.5164ZM32.9212 17.3427C33.1024 17.3427 33.2472 17.2861 33.3554 17.1728C33.4661 17.0571 33.5215 16.9086 33.5215 16.7274C33.5215 16.5437 33.4661 16.3952 33.3554 16.2819C33.2472 16.1687 33.1024 16.112 32.9212 16.112C32.7375 16.112 32.5903 16.1687 32.4796 16.2819C32.3713 16.3952 32.3172 16.5437 32.3172 16.7274C32.3172 16.9086 32.3713 17.0571 32.4796 17.1728C32.5903 17.2861 32.7375 17.3427 32.9212 17.3427ZM32.5966 17.12V16.3159H32.9892C33.0748 16.3159 33.1427 16.3385 33.193 16.3838C33.2459 16.4292 33.2723 16.4908 33.2723 16.5688C33.2723 16.6871 33.2157 16.7651 33.1024 16.8029L33.3063 17.1162L33.0496 17.12L32.8722 16.8218H32.8231V17.12H32.5966ZM32.8193 16.6594H32.959C32.9816 16.6594 33.0005 16.6531 33.0156 16.6406C33.0332 16.628 33.042 16.6078 33.042 16.5802C33.042 16.555 33.0332 16.5374 33.0156 16.5273C33.0005 16.5147 32.9816 16.5084 32.959 16.5084H32.8193V16.6594Z" fill="#12183D"/>
<rect x="0.5" y="0.5" width="37" height="23" rx="2" stroke="black" stroke-opacity="0.07"/>
</svg>

<svg width="38" height="24" viewBox="0 0 38 24" fill="none" xmlns="http://www.w3.org/2000/svg" aria-labelledby="pi-payjustnow" role="img"><title id="pi-payjustnow">PayJustNow</title><rect width="38" height="24" rx="2" fill="#fff"/><path d="M27.115 11.853l-1.03.674a9.198 9.198 0 00-5.85-4 9.192 9.192 0 00-6.965 1.312 9.192 9.192 0 00-3.658 4.654H8.315a10.415 10.415 0 014.282-5.684 10.408 10.408 0 017.889-1.488 10.417 10.417 0 016.63 4.532z" fill="#EA516C"/><path d="M20.916 5.272l-.255 1.21a11.26 11.26 0 00-8.532 1.61 11.269 11.269 0 00-4.706 6.4h-1.28a12.504 12.504 0 015.31-7.436 12.486 12.486 0 019.463-1.784z" fill="#29AAF2"/><path d="M10.99 6.346a13.344 13.344 0 00-5.719 8.146h-1.26a14.573 14.573 0 016.305-9.177l.673 1.031z" fill="#86E3E8"/><path d="M5.038 17.742h-.444v.798h-.583v-2.66h1.084c.633 0 1.015.378 1.015.92v.007c0 .616-.477.935-1.072.935zm.481-.93c0-.262-.182-.403-.474-.403h-.45v.813h.462c.292 0 .462-.174.462-.401v-.01zM8.252 18.538l-.242-.597H6.888l-.243.597H6.05l1.137-2.678h.538l1.137 2.678h-.61zm-.803-1.973l-.353.862h.705l-.352-.862zM10.187 17.478v1.06h-.584V17.49l-1.02-1.61h.683l.633 1.068.644-1.068h.664l-1.02 1.598zM12.188 18.578c-.398 0-.651-.198-.818-.472l.216-.186c.163.246.33.379.606.379.3 0 .52-.216.52-.637v-1.781h.303v1.777c0 .61-.353.92-.827.92zM15.894 17.402c0 .775-.444 1.177-1.107 1.177-.656 0-1.103-.402-1.103-1.154v-1.546h.3v1.527c0 .574.303.896.81.896.49 0 .8-.295.8-.877v-1.546h.3v1.523zM17.554 17.065c.591.129.864.347.864.756 0 .459-.379.756-.906.756-.42 0-.765-.14-1.084-.424l.186-.22c.277.25.542.375.91.375.356 0 .591-.186.591-.455 0-.25-.133-.392-.69-.508-.61-.132-.89-.33-.89-.771 0-.426.367-.73.871-.73.387 0 .664.11.933.326l-.175.231a1.165 1.165 0 00-.765-.288c-.345 0-.565.19-.565.434 0 .252.136.393.72.518zM19.976 18.538h-.303v-2.38h-.89v-.278h2.084v.277h-.89v2.38zM23.234 18.538l-1.285-1.69v1.69h-.578V15.88h.538l1.244 1.638V15.88h.576v2.658h-.495zM25.656 18.585c-.819 0-1.406-.61-1.406-1.368v-.008c0-.756.595-1.374 1.414-1.374.818 0 1.406.61 1.406 1.366v.008c0 .756-.595 1.376-1.414 1.376zm.804-1.376c0-.457-.334-.836-.804-.836-.47 0-.796.372-.796.828v.008c0 .457.334.836.804.836.47 0 .796-.372.796-.828v-.008zM30.354 18.558h-.508l-.598-1.74-.6 1.74h-.507l-.906-2.678h.625l.55 1.8.595-1.807h.5l.595 1.808.55-1.8h.61l-.906 2.677zM32.921 17.516a.825.825 0 01-.411-.101.744.744 0 01-.28-.28.817.817 0 01-.101-.408c0-.153.033-.289.101-.407a.737.737 0 01.28-.284.825.825 0 01.411-.101c.154 0 .29.034.408.101a.71.71 0 01.276.284.803.803 0 01.102.407.817.817 0 01-.102.408.717.717 0 01-.276.28.804.804 0 01-.408.101zm0-.173a.572.572 0 00.434-.17.618.618 0 00.167-.446.61.61 0 00-.167-.445.573.573 0 00-.434-.17.59.59 0 00-.441.17.618.618 0 00-.163.445c0 .182.054.33.163.446a.59.59 0 00.441.17zm-.324-.223v-.804h.392c.086 0 .154.023.204.068.053.045.08.107.08.185 0 .118-.057.196-.17.234l.203.313-.256.004-.178-.298h-.049v.298h-.226zm.222-.46h.14a.086.086 0 00.057-.02c.017-.012.026-.032.026-.06 0-.025-.009-.043-.026-.053a.085.085 0 00-.057-.019h-.14v.151z" fill="#12183D"/><rect x=".5" y=".5" width="37" height="23" rx="2" stroke="#000" stroke-opacity=".07"/></svg>
